@extra/phlat-icons/emblems-24/emblem-shared.svg

<?xml version="1.0" encoding="UTF-8" standalone="no"?>
<svg
   xmlns:dc="http://purl.org/dc/elements/1.1/"
   xmlns:cc="http://creativecommons.org/ns#"
   xmlns:rdf="http://www.w3.org/1999/02/22-rdf-syntax-ns#"
   xmlns:svg="http://www.w3.org/2000/svg"
   xmlns="http://www.w3.org/2000/svg"
   xmlns:sodipodi="http://sodipodi.sourceforge.net/DTD/sodipodi-0.dtd"
   xmlns:inkscape="http://www.inkscape.org/namespaces/inkscape"
   width="16"
   version="1.1"
   id="svg7384"
   height="16"
   sodipodi:docname="emblem-shared.svg"
   inkscape:version="0.92.1 r15371">
  <sodipodi:namedview
     pagecolor="#ffffff"
     bordercolor="#666666"
     borderopacity="1"
     objecttolerance="10"
     gridtolerance="10"
     guidetolerance="10"
     inkscape:pageopacity="0"
     inkscape:pageshadow="2"
     inkscape:window-width="2560"
     inkscape:window-height="1034"
     id="namedview19"
     showgrid="true"
     inkscape:zoom="25.679692"
     inkscape:cx="-0.20338983"
     inkscape:cy="8"
     inkscape:window-x="0"
     inkscape:window-y="22"
     inkscape:window-maximized="1"
     inkscape:current-layer="layer15">
    <inkscape:grid
       type="xygrid"
       id="grid4496" />
  </sodipodi:namedview>
  <metadata
     id="metadata90">
    <rdf:RDF>
      <cc:Work
         rdf:about="">
        <dc:format>image/svg+xml</dc:format>
        <dc:type
           rdf:resource="http://purl.org/dc/dcmitype/StillImage" />
        <dc:title>Gnome Symbolic Icon Theme</dc:title>
      </cc:Work>
    </rdf:RDF>
  </metadata>
  <title
     id="title9167">Gnome Symbolic Icon Theme</title>
  <defs
     id="defs7386" />
  <g
     transform="translate(-521.0002,-381)"
     style="display:inline"
     id="layer9" />
  <g
     transform="translate(-521.0002,-381)"
     id="layer10" />
  <g
     transform="translate(-521.0002,-381)"
     id="layer11" />
  <g
     transform="translate(-521.0002,-381)"
     id="layer13" />
  <g
     transform="translate(-521.0002,-381)"
     id="layer14" />
  <g
     transform="translate(-521.0002,-381)"
     style="display:inline"
     id="layer15">
    <path
       sodipodi:type="inkscape:offset"
       inkscape:radius="1.0317234"
       inkscape:original="M 12.03125 1.03125 A 2.96875 2.96875 0 0 0 9.0644531 3.9609375 L 5.7402344 5.5742188 A 2.96875 2.96875 0 0 0 4.03125 5.03125 A 2.96875 2.96875 0 0 0 1.0703125 7.8691406 L 1 7.9042969 L 1.0664062 7.9375 A 2.96875 2.96875 0 0 0 1.0625 8 A 2.96875 2.96875 0 0 0 4.03125 10.96875 A 2.96875 2.96875 0 0 0 5.8476562 10.347656 L 9.0644531 11.972656 A 2.96875 2.96875 0 0 0 9.0625 12 A 2.96875 2.96875 0 0 0 12.03125 14.96875 A 2.96875 2.96875 0 0 0 15 12 A 2.96875 2.96875 0 0 0 12.03125 9.03125 A 2.96875 2.96875 0 0 0 9.8144531 10.029297 L 6.9433594 8.5742188 A 2.96875 2.96875 0 0 0 7 8 A 2.96875 2.96875 0 0 0 6.9082031 7.2753906 L 9.7460938 5.8925781 A 2.96875 2.96875 0 0 0 12.03125 6.96875 A 2.96875 2.96875 0 0 0 15 4 A 2.96875 2.96875 0 0 0 12.03125 1.03125 z "
       style="color:#000000;display:inline;overflow:visible;visibility:visible;fill:#333333;fill-opacity:1;fill-rule:nonzero;stroke:none;stroke-width:1.50793636;marker:none;enable-background:new"
       id="path4499"
       d="M 12.03125,0 C 10.993083,5.9312543e-4 9.9613569,0.42483609 9.2226562,1.1542969 8.6562278,1.7136403 8.3403636,2.462291 8.1835938,3.2421875 L 5.5976562,4.4960938 C 5.0891809,4.271244 4.5873251,4.0004622 4.03125,4 a 1.0318266,1.0318266 0 0 0 -0.00195,0 c -1.0168155,0.00169 -2.0276293,0.407745 -2.7617188,1.1113281 -0.60313345,0.5780692 -0.94923685,1.366696 -1.10156248,2.1875 a 1.0318266,1.0318266 0 0 0 -0.046875,1.140625 C 0.22305095,9.3295718 0.56892346,10.193923 1.203125,10.828125 1.9436931,11.568693 2.9839285,12 4.03125,12 4.6310084,11.999852 5.1627295,11.689499 5.703125,11.429688 l 2.4648438,1.24414 c 0.1435313,0.8032 0.4577752,1.576916 1.0351562,2.154297 C 9.9436931,15.568693 10.983929,16 12.03125,16 13.078571,16 14.118807,15.568693 14.859375,14.828125 15.599943,14.087557 16.03125,13.047321 16.03125,12 c 0,-1.047321 -0.431307,-2.0875569 -1.171875,-2.828125 C 14.118807,8.4313069 13.078571,8 12.03125,8 13.078571,8 14.118807,7.5686931 14.859375,6.828125 15.599943,6.0875569 16.03125,5.0473215 16.03125,4 16.03125,2.9526785 15.599943,1.9124431 14.859375,1.171875 14.118807,0.43130688 13.078571,0 12.03125,0 Z M 9.6484375,7.0878906 C 10.343187,7.6187405 11.154033,7.99893 12.029297,8 11.194234,8.0009906 10.41786,8.349195 9.7402344,8.8359375 L 8.0273438,7.9667969 c -2.999e-4,-0.028251 -0.00887,-0.055747 -0.00977,-0.083984 z"
       transform="translate(521.0002,381)" />
    <path
       style="color:#000000;display:inline;overflow:visible;visibility:visible;fill:#f1f2f2;fill-opacity:1;fill-rule:nonzero;stroke:none;stroke-width:1.50793636;marker:none;enable-background:new"
       d="M 12.03125 1.03125 A 2.96875 2.96875 0 0 0 9.0644531 3.9609375 L 5.7402344 5.5742188 A 2.96875 2.96875 0 0 0 4.03125 5.03125 A 2.96875 2.96875 0 0 0 1.0703125 7.8691406 L 1 7.9042969 L 1.0664062 7.9375 A 2.96875 2.96875 0 0 0 1.0625 8 A 2.96875 2.96875 0 0 0 4.03125 10.96875 A 2.96875 2.96875 0 0 0 5.8476562 10.347656 L 9.0644531 11.972656 A 2.96875 2.96875 0 0 0 9.0625 12 A 2.96875 2.96875 0 0 0 12.03125 14.96875 A 2.96875 2.96875 0 0 0 15 12 A 2.96875 2.96875 0 0 0 12.03125 9.03125 A 2.96875 2.96875 0 0 0 9.8144531 10.029297 L 6.9433594 8.5742188 A 2.96875 2.96875 0 0 0 7 8 A 2.96875 2.96875 0 0 0 6.9082031 7.2753906 L 9.7460938 5.8925781 A 2.96875 2.96875 0 0 0 12.03125 6.96875 A 2.96875 2.96875 0 0 0 15 4 A 2.96875 2.96875 0 0 0 12.03125 1.03125 z "
       transform="translate(521.0002,381)"
       id="path24876-5-1" />
  </g>
  <g
     transform="translate(-521.0002,-381)"
     style="display:inline"
     id="g71291" />
  <g
     transform="translate(-521.0002,-381)"
     style="display:inline"
     id="g4953" />
  <g
     transform="translate(-521.0002,-381)"
     style="display:inline"
     id="layer12" />
</svg>

<svg xmlns="http://www.w3.org/2000/svg" width="16" height="16">
    <g color="#000">
        <path style="marker:none" d="M12.031 0c-1.038 0-2.07.425-2.808 1.154-.567.56-.883 1.308-1.04 2.088L5.599 4.496C5.089 4.271 4.588 4 4.03 4a1.032 1.032 0 0 0-.002 0 4.046 4.046 0 0 0-2.761 1.111C.664 5.69.318 6.478.166 7.3a1.032 1.032 0 0 0-.047 1.14c.104.89.45 1.755 1.084 2.39.74.74 1.78 1.171 2.828 1.171.6 0 1.132-.31 1.672-.57l2.465 1.244c.144.803.458 1.577 1.035 2.154.74.74 1.78 1.172 2.828 1.172a4.047 4.047 0 0 0 2.828-1.172A4.047 4.047 0 0 0 16.031 12a4.047 4.047 0 0 0-1.172-2.828A4.047 4.047 0 0 0 12.031 8a4.047 4.047 0 0 0 2.828-1.172A4.047 4.047 0 0 0 16.031 4a4.047 4.047 0 0 0-1.172-2.828A4.047 4.047 0 0 0 12.031 0zM9.648 7.088c.695.53 1.506.91 2.381.912-.835.001-1.611.35-2.289.836l-1.713-.87c0-.027-.009-.055-.01-.083z" overflow="visible" fill="#333"/>
        <path style="marker:none" d="M12.031 1.031a2.969 2.969 0 0 0-2.967 2.93L5.74 5.574a2.969 2.969 0 0 0-1.709-.543 2.969 2.969 0 0 0-2.96 2.838L1 7.904l.066.034A2.969 2.969 0 0 0 1.062 8a2.969 2.969 0 0 0 2.97 2.969 2.969 2.969 0 0 0 1.816-.621l3.216 1.625a2.969 2.969 0 0 0-.002.027 2.969 2.969 0 0 0 2.97 2.969A2.969 2.969 0 0 0 15 12a2.969 2.969 0 0 0-2.969-2.969 2.969 2.969 0 0 0-2.217.998l-2.87-1.455A2.969 2.969 0 0 0 7 8a2.969 2.969 0 0 0-.092-.725l2.838-1.382a2.969 2.969 0 0 0 2.285 1.076A2.969 2.969 0 0 0 15 4a2.969 2.969 0 0 0-2.969-2.969z" overflow="visible" fill="#f1f2f2"/>
    </g>
</svg>
